X:344
T: ES RITTEN ZWEI HERZLIEBCHEN
N: E0194A
O: Europa, Mitteleuropa, Deutschland, Mosel - Gegend
R: erzaehlendes Volks - Lied, Sage, Familien - Geschichte
M: 3/4
L: 1/8
K: G
D2 | G3FGB | A2G2
A2 | B3cB2 | A4
GB | d2d2dc | B2A2
GA | B2B2A2 | G4

@@@ Tune index: 3994
